icons/edit.svg

<svg width="24" height="24" viewBox="0 0 24 24" fill="none" xmlns="http://www.w3.org/2000/svg">
<path fill-rule="evenodd" clip-rule="evenodd" d="M19.1746 4.09538C19.6176 3.69449 20.2973 3.71147 20.7198 4.13398C21.1725 4.58669 21.1549 5.32592 20.6812 5.75658L11.5617 14.047L9.51703 14.3026L10.351 12.0786L19.1746 4.09538ZM22.134 2.71977C20.9579 1.54366 19.0661 1.49639 17.8327 2.6123L8.82909 10.7585C8.71072 10.8656 8.61972 10.9994 8.56367 11.1489L7.06367 15.1489C6.94076 15.4766 6.99818 15.8448 7.21506 16.1196C7.43193 16.3943 7.77669 16.5357 8.12403 16.4923L12.124 15.9923C12.3285 15.9667 12.5202 15.8786 12.6727 15.7399L22.0265 7.23646C23.3452 6.03766 23.3941 3.97994 22.134 2.71977ZM4.31436 2C3.0213 2 2.01091 3.10571 2.11343 4.3875C2.26074 6.22923 2.5 9.59666 2.5 12C2.5 14.3489 2.27142 17.6195 2.12343 19.4868C2.01562 20.8473 3.15267 21.9844 4.51316 21.8766C6.3805 21.7286 9.65107 21.5 12 21.5C14.4033 21.5 17.7708 21.7393 19.6125 21.8866C20.8943 21.9891 22 20.9787 22 19.6856V12C22 11.4477 21.5523 11 21 11C20.4477 11 20 11.4477 20 12V19.6856C20 19.8041 19.8972 19.903 19.772 19.8929C17.9321 19.7458 14.4923 19.5 12 19.5C9.56327 19.5 6.22149 19.7349 4.35515 19.8828C4.22105 19.8934 4.10656 19.7789 4.11718 19.6448C4.26509 17.7785 4.5 14.4367 4.5 12C4.5 9.50771 4.25422 6.06791 4.10706 4.22804C4.09705 4.10281 4.19591 4 4.31436 4H12C12.5523 4 13 3.55229 13 3C13 2.44772 12.5523 2 12 2H4.31436Z" fill="#333333"/>
</svg>

<svg xmlns="http://www.w3.org/2000/svg" width="24" height="24" fill="none" viewBox="0 0 24 24">
  <path fill="#333" fill-rule="evenodd" d="M19.175 4.095a1.121 1.121 0 011.506 1.662l-9.12 8.29-2.044.256.834-2.224 8.824-7.984zm2.959-1.375a3.121 3.121 0 00-4.301-.108l-9.004 8.146a1 1 0 00-.265.39l-1.5 4a1 1 0 001.06 1.344l4-.5a1 1 0 00.549-.252l9.353-8.504a3.121 3.121 0 00.108-4.516zM4.314 2a2.21 2.21 0 00-2.2 2.388C2.26 6.229 2.5 9.596 2.5 12c0 2.349-.229 5.62-.377 7.487a2.223 2.223 0 002.39 2.39C6.38 21.729 9.651 21.5 12 21.5c2.403 0 5.77.24 7.613.387A2.21 2.21 0 0022 19.686V12a1 1 0 10-2 0v7.686a.21.21 0 01-.228.207c-1.84-.147-5.28-.393-7.772-.393-2.437 0-5.779.235-7.645.383a.223.223 0 01-.238-.238c.148-1.866.383-5.208.383-7.645 0-2.492-.246-5.932-.393-7.772A.21.21 0 014.314 4H12a1 1 0 100-2H4.314z"/>
</svg>
